X: 1
T: Caher Rua
M: 4/4
L: 1/8
R: reel
K: Dmaj
d3 A BAFA | AFBF AFEF | D2 FA BAFB | ABde fgfe |
dA A2 BAFA | AFBF AFEF | D2 FA BAFB | ABde fd d2 :|
dD D2 FDFA | dcde fdef | g2 ge fefd | egfd edBc |
dD D2 FDFA | dcde fdef | g2 eg fcdB | AFGE D2 Ac |
dD D2 FDFA | dcde fdef | g2 ge fefd | egfd edBc |
dD D2 FDFA | dcde fdef | g2 eg f2 df | gabg efge |
defd cdec | BcdB AFEF | D2 FA BAFB | ABde fgfe |
dA A2 BAFA | AFBF AFEF | D2 FA BAFB | ABde fd d2 |
